X:245
T: SIEH AN MEIN SCHOENSTES KIND
N: E0831
O: Europa, Mitteleuropa, Deutschland, Hessen, Frankfurt, Dreieichenhain
R: Hochzeits -, Ehestands - Lied
M: 3/4
L: 1/8
K: G
 | d2B2d2 | d2cBA2 |
e2d2c2 | c4B2 |
d2B2d2 | d2cBA2 |
e2d2c2 | c4B2 |
A2A2B2 | c3BA2 |
B2B2c2 | d4B2 |
e2e2e2 | d3cB2 |
B2d3A | A4G2

@@@ Tune index: 4558
